X:1
T:Star Spangled Banner
T:Star Spangled Banner
T:Band Arrangement
T:music by John Stafford Smith lyrics by Francis Scott Key 
T:arr Steve Selfridge
T:Trombone
T:2019
C:John Stafford Smith, Francis Scott Key
Z:arr Steve Selfridge
Z:2019
L:1/8
M:3/4
K:Bb
V:1 bass nm="Trombone" snm="Tbn."
V:1
 !fermata!z4!mf! F,>D, || B,,2 D,2 F,2 | G,4 ^F,>F, | G,2 G,2 C,2 | !breath!F,4 F,F, | %5
 B,,3 C, D,E, | F,4 E,>E, | D,2 B,,2 F,2 | D,2 !breath!B,,2 F,>D, |"^9" B,,2 D,2 F,2 | G,4 ^F,>F, | %11
 G,2 G,2 C,2 | !breath!F,4 F,F, | B,,3 C, D,E, | F,4 E,>E, | D,2 B,,2 F,2 | D,2 B,,2 z2 | z6 | z6 | %19
 z6 | z6 | B,,2 C,2 D,2 | F,2 F,F, F,2 | G,2 G,2 C,2 |!<(! !breath!F,2 F,E, D,C,!<)! | %25
"^25"!mf! B,,2 C,2 D,2 | E,2 E,2 D,2 | C,2 C,D, E,=E, | !fermata!F,4 z2 | %29
"^29"[Q:1/4=92]"^Maestoso" z2!f! !>!B,,!>!C, !>!D,!>!E, | !>!!breath!F,4 E,2 | D,2 F,2 F,2 | %32
 !fermata!B,,6 |] %33

